X:177
T:Old Towler TS.177
M:6/8
L:1/8
Q:3/8=100
S:Thomas Sands’ MS,1810,Lincolnshire
R:Air
O:England;Lincolnshire
C:William Shield
Z:vmp.Ruairidh Greig, 2011
K:D
A|d2dB2G|F2GA2c|B2d ceg|f3e2A|
d2df2d|Bcde2{d}F|E2FG2F|EA,A,A,2A,|
A,DD DFF|FDDD2D|DFF FAA|AFF F2A,|
A,DD DFF|FAA FAd|dff faa|^g3zg2|
aeg fed|Bgf edc|d3c3|d’af dfa|
d’/a/f/ d/f/a/ d’/a/f/ d/f/a/|d’/a/f/ d/f/a/ d’/f/a/ d/f/a/|d’d’d’ d’d’d’|d’6|
|:”Song”A|d2d B2G|F2GA2c|B2d ceg|f3e2A|
d2df2d|BNcd e2d|cdc BAB|A3z2z:|
A|e2cA2A|f2dA2d|c2eg2f|f3e2A|
A^GA Bcd|efg afd|B2e cAc|d3zDF|
A3A3|ABc dcB|AFA AFA|Add dAc|
e3e3|efg agf|ece ece|e2gz a|
fdd dcd|ecAA2a|fdd dcd|ecA ABc|
dff dfd|d3d3|dff dff|f2Ha3 F|
D2GF2B|A2gf2d|B2e cBc|d3g3|
fgf edc|a3g3|f>gf edc|dAFD2:|]

